img/icons/play.svg

<svg width="101" height="77" viewBox="0 0 101 77" fill="none" xmlns="http://www.w3.org/2000/svg">
<path d="M97.0001 18.1C97.0001 18.1 96.1001 11.1 93.2001 7.99997C89.6001 3.99997 85.5001 3.89995 83.7001 3.69995C70.4001 2.69995 50.4001 2.69995 50.4001 2.69995H50.3001C50.3001 2.69995 30.3001 2.69995 17.0001 3.69995C15.1001 3.89995 11.1001 3.99997 7.50011 7.99997C4.70011 11.1 3.7001 18.1 3.7001 18.1C3.7001 18.1 2.80011 26.3 2.80011 34.5V42.2C2.80011 50.4 3.7001 58.6 3.7001 58.6C3.7001 58.6 4.60011 65.6 7.50011 68.7C11.1001 72.7 15.9001 72.6 18.0001 73C25.6001 73.8 50.4001 74 50.4001 74C50.4001 74 70.4001 74 83.7001 73C85.6001 72.8 89.6001 72.7 93.2001 68.7C96.0001 65.6 97.0001 58.6 97.0001 58.6C97.0001 58.6 97.9001 50.4 97.9001 42.2V34.5C97.9001 26.3 97.0001 18.1 97.0001 18.1Z" fill="#63D1BB"/>
<path d="M50.3001 76.8C49.3001 76.8 25.3001 76.5 17.7001 75.8H17.6001H17.5001C17.2001 75.7 16.8001 75.7 16.4001 75.6C13.9001 75.3 9.2001 74.7 5.6001 70.6C2.2001 67 1.2001 59.8 1.1001 59C1.1001 58.7 0.100098 50.5 0.100098 42.3V34.6C0.100098 26.3 1.00011 18.2 1.00011 17.9V17.8C1.10011 17 2.20011 9.89998 5.50011 6.19998C9.50011 1.79998 14.0001 1.30001 16.2001 1.10001C16.4001 1.10001 16.6001 1.1 16.7001 1H16.8001C30.1001 0 50.1001 0 50.3001 0H50.4001C50.6001 0 70.6001 0 83.9001 1H84.0001C84.2001 1 84.3001 1.00001 84.5001 1.10001C86.7001 1.30001 91.2001 1.79998 95.2001 6.19998C98.6001 9.79998 99.6001 17 99.7001 17.8C99.7001 18.1 100.7 26.3 100.7 34.6V42.3C100.7 50.6 99.8001 58.7 99.7001 59V59.1C99.6001 59.9 98.5001 67.1 95.2001 70.7C91.2001 75.1 86.7001 75.6 84.5001 75.8C84.3001 75.8 84.1001 75.8 84.0001 75.9H83.9001C70.6001 76.8 50.5001 76.8 50.3001 76.8ZM18.4001 70.4C25.9001 71.1 49.6001 71.4 50.4001 71.4C51.1001 71.4 70.5001 71.4 83.4001 70.4C83.6001 70.4 83.8001 70.4 84.0001 70.3C85.8001 70.1 88.6001 69.8 91.2001 67C93.0001 65 94.1001 60.1 94.3001 58.4C94.4001 57.9 95.2001 50 95.2001 42.3V34.6C95.2001 26.8 94.3001 19 94.2001 18.5C93.9001 16.1 92.8001 11.7 91.1001 10C88.5001 7.1 85.7001 6.89998 83.9001 6.69998C83.7001 6.69998 83.5001 6.70001 83.3001 6.60001C70.2001 5.60001 50.5001 5.60001 50.3001 5.60001H50.2001C50.0001 5.60001 30.2001 5.60001 17.2001 6.60001C17.0001 6.60001 16.8001 6.59998 16.6001 6.69998C14.8001 6.89998 12.0001 7.2 9.40012 10C7.60012 12 6.50011 16.9 6.30011 18.6C6.20011 19.2 5.4001 27 5.4001 34.7V42.4C5.4001 50.1 6.30011 58 6.30011 58.5C6.60011 60.9 7.70012 65.3 9.40012 67C11.7001 69.6 14.7001 70 16.9001 70.3C17.5001 70.2 17.9001 70.3 18.4001 70.4Z" fill="white"/>
<path d="M38.4004 20.5V56.2L68.2004 38.4L38.4004 20.5Z" fill="white"/>
</svg>

<svg width="101" height="77" fill="none" xmlns="http://www.w3.org/2000/svg"><path d="M97 18.1s-.9-7-3.8-10.1c-3.6-4-7.7-4.1-9.5-4.3-13.3-1-33.3-1-33.3-1h-.1s-20 0-33.3 1c-1.9.2-5.9.3-9.5 4.3-2.8 3.1-3.8 10.1-3.8 10.1s-.9 8.2-.9 16.4v7.7c0 8.2.9 16.4.9 16.4s.9 7 3.8 10.1c3.6 4 8.4 3.9 10.5 4.3 7.6.8 32.4 1 32.4 1s20 0 33.3-1c1.9-.2 5.9-.3 9.5-4.3C96 65.6 97 58.6 97 58.6s.9-8.2.9-16.4v-7.7c0-8.2-.9-16.4-.9-16.4z" fill="#63D1BB"/><path d="M50.3 76.8c-1 0-25-.3-32.6-1h-.2c-.3-.1-.7-.1-1.1-.2-2.5-.3-7.2-.9-10.8-5C2.2 67 1.2 59.8 1.1 59c0-.3-1-8.5-1-16.7v-7.7c0-8.3.9-16.4.9-16.7v-.1c.1-.8 1.2-7.9 4.5-11.6 4-4.4 8.5-4.9 10.7-5.1.2 0 .4 0 .5-.1h.1c13.3-1 33.3-1 33.5-1h.1c.2 0 20.2 0 33.5 1h.1c.2 0 .3 0 .5.1 2.2.2 6.7.7 10.7 5.1 3.4 3.6 4.4 10.8 4.5 11.6 0 .3 1 8.5 1 16.8v7.7c0 8.3-.9 16.4-1 16.7v.1c-.1.8-1.2 8-4.5 11.6-4 4.4-8.5 4.9-10.7 5.1-.2 0-.4 0-.5.1h-.1c-13.3.9-33.4.9-33.6.9zm-31.9-6.4c7.5.7 31.2 1 32 1 .7 0 20.1 0 33-1 .2 0 .4 0 .6-.1 1.8-.2 4.6-.5 7.2-3.3 1.8-2 2.9-6.9 3.1-8.6.1-.5.9-8.4.9-16.1v-7.7c0-7.8-.9-15.6-1-16.1-.3-2.4-1.4-6.8-3.1-8.5-2.6-2.9-5.4-3.1-7.2-3.3-.2 0-.4 0-.6-.1-13.1-1-32.8-1-33-1h-.1c-.2 0-20 0-33 1-.2 0-.4 0-.6.1-1.8.2-4.6.5-7.2 3.3-1.8 2-2.9 6.9-3.1 8.6-.1.6-.9 8.4-.9 16.1v7.7c0 7.7.9 15.6.9 16.1.3 2.4 1.4 6.8 3.1 8.5 2.3 2.6 5.3 3 7.5 3.3.6-.1 1 0 1.5.1z" fill="#fff"/><path d="M38.4 20.5v35.7l29.8-17.8-29.8-17.9z" fill="#fff"/></svg>
